public/img/svgs/shapes/generic-hero-shape.svg

<svg width="220" height="80" viewBox="0 0 220 80" fill="none" xmlns="http://www.w3.org/2000/svg">
<path d="M307.695 41.1019C303.334 41.1019 299.327 39.1555 296.97 35.8033L282.945 16.0147C281.884 14.609 280.352 14.3927 279.763 14.3927C279.174 14.3927 277.524 14.5008 276.581 16.0147L262.556 35.8033C260.199 39.1555 256.191 41.1019 251.831 41.1019C247.47 41.1019 243.463 39.1555 241.106 35.8033L227.081 16.0147C226.02 14.609 224.488 14.3927 223.898 14.3927C223.309 14.3927 221.659 14.5008 220.716 16.0147L206.691 35.8033C204.334 39.1555 200.327 41.1019 195.966 41.1019C191.605 41.1019 187.598 39.1555 185.241 35.8033L171.216 16.0147C170.155 14.609 168.623 14.3927 168.034 14.3927C167.445 14.3927 165.795 14.5008 164.852 16.0147L150.827 35.8033C148.47 39.1555 144.462 41.1019 140.102 41.1019C135.741 41.1019 131.734 39.1555 129.377 35.8033L115.352 16.0147C114.291 14.609 112.759 14.3927 112.169 14.3927C111.58 14.3927 109.93 14.5008 108.987 16.0147L94.9622 35.8033C92.6051 39.1555 88.5979 41.1019 84.2372 41.1019C79.8764 41.1019 75.8692 39.1555 73.5121 35.8033L59.4871 16.0147C58.4264 14.609 56.8942 14.3927 56.3049 14.3927C55.7156 14.3927 54.0656 14.5008 53.1227 16.0147L39.0977 35.8033C36.7405 39.1555 32.7334 41.1019 28.3727 41.1019C24.0119 41.1019 20.0048 39.1555 17.6476 35.8033L3.62255 16.0147C2.56184 14.609 1.02967 14.3927 0.440388 14.3927C-0.148903 14.3927 -1.79892 14.5008 -2.74178 16.0147L-16.7668 35.8033C-19.1239 39.1555 -23.1312 41.1019 -27.4919 41.1019C-31.8526 41.1019 -35.8597 39.1555 -38.2169 35.8033L-59.1955 6.28263C-60.492 4.33621 -59.9027 1.84912 -57.8991 0.659644C-55.7777 -0.529834 -53.067 0.0108364 -51.7705 1.84912L-30.7919 31.3698C-29.7312 32.7756 -28.199 32.9918 -27.6097 32.9918C-27.0204 32.9918 -25.3704 32.8837 -24.4275 31.3698L-10.4025 11.5812C-8.04538 8.22905 -4.03817 6.28263 0.322556 6.28263C4.68329 6.28263 8.69042 8.22905 11.0476 11.5812L25.0726 31.3698C26.1334 32.7756 27.6655 32.9918 28.2548 32.9918C28.8441 32.9918 30.4941 32.8837 31.4369 31.3698L45.462 11.5812C47.8192 8.22905 51.8263 6.28263 56.187 6.28263C60.5478 6.28263 64.5549 8.22905 66.9121 11.5812L80.9371 31.3698C81.9978 32.7756 83.5301 32.9918 84.1194 32.9918C84.7086 32.9918 86.3586 32.8837 87.3015 31.3698L101.327 11.5812C103.684 8.22905 107.691 6.28263 112.052 6.28263C116.412 6.28263 120.419 8.22905 122.777 11.5812L136.802 31.3698C137.862 32.7756 139.394 32.9918 139.984 32.9918C140.573 32.9918 142.223 32.8837 143.166 31.3698L157.191 11.5812C159.548 8.22905 163.555 6.28263 167.916 6.28263C172.277 6.28263 176.284 8.22905 178.641 11.5812L192.666 31.3698C193.727 32.7756 195.259 32.9918 195.848 32.9918C196.438 32.9918 198.088 32.8837 199.031 31.3698L213.055 11.5812C215.413 8.22905 219.42 6.28263 223.781 6.28263C228.141 6.28263 232.148 8.22905 234.506 11.5812L248.531 31.3698C249.591 32.7756 251.124 32.9918 251.713 32.9918C252.302 32.9918 253.952 32.8837 254.895 31.3698L268.92 11.5812C271.277 8.22905 275.284 6.28263 279.645 6.28263C284.006 6.28263 288.013 8.22905 290.37 11.5812L304.395 31.3698C305.456 32.7756 306.988 32.9918 307.577 32.9918C308.167 32.9918 309.817 32.8837 310.759 31.3698L331.856 1.84912C333.152 -0.0972979 335.981 -0.529834 337.985 0.659644C340.106 1.84912 340.578 4.44434 339.281 6.28263L318.302 35.8033C315.945 39.1555 311.938 41.1019 307.695 41.1019Z" fill="#77E8C6"/>
<path d="M307.698 77.0025C303.337 77.0025 299.33 75.0561 296.973 71.704L282.947 51.9154C281.887 50.5096 280.355 50.2933 279.765 50.2933C279.176 50.2933 277.526 50.4015 276.583 51.9154L262.558 71.704C260.201 75.0561 256.194 77.0025 251.833 77.0025C247.472 77.0025 243.465 75.0561 241.108 71.704L227.083 51.9154C226.022 50.5096 224.49 50.2933 223.901 50.2933C223.312 50.2933 221.661 50.4015 220.719 51.9154L206.694 71.704C204.337 75.0561 200.329 77.0025 195.968 77.0025C191.608 77.0025 187.601 75.0561 185.243 71.704L171.218 51.9154C170.158 50.5096 168.626 50.2933 168.036 50.2933C167.447 50.2933 165.797 50.4015 164.854 51.9154L150.829 71.704C148.472 75.0561 144.465 77.0025 140.104 77.0025C135.743 77.0025 131.736 75.0561 129.379 71.704L115.354 51.9154C114.293 50.5096 112.761 50.2933 112.172 50.2933C111.582 50.2933 109.933 50.4015 108.99 51.9154L94.9646 71.704C92.6074 75.0561 88.6003 77.0025 84.2395 77.0025C79.8788 77.0025 75.8716 75.0561 73.5145 71.704L59.4894 51.9154C58.4287 50.5096 56.8965 50.2933 56.3073 50.2933C55.718 50.2933 54.068 50.4015 53.1251 51.9154L39.1 71.704C36.7429 75.0561 32.7357 77.0025 28.375 77.0025C24.0143 77.0025 20.0071 75.0561 17.65 71.704L3.62489 51.9154C2.56417 50.5096 1.03201 50.2933 0.442719 50.2933C-0.146572 50.2933 -1.79659 50.4015 -2.73945 51.9154L-16.7645 71.704C-19.1216 75.0561 -23.1288 77.0025 -27.4896 77.0025C-31.8503 77.0025 -35.8574 75.0561 -38.2146 71.704L-59.1932 42.1833C-60.4897 40.2368 -59.9004 37.7498 -57.8968 36.5603C-55.7754 35.3708 -53.0646 35.9115 -51.7682 37.7498L-30.7896 67.2704C-29.7288 68.6762 -28.1967 68.8925 -27.6074 68.8925C-27.0181 68.8925 -25.3681 68.7843 -24.4252 67.2704L-10.4002 47.4818C-8.04305 44.1297 -4.03584 42.1833 0.32489 42.1833C4.68562 42.1833 8.69275 44.1297 11.0499 47.4818L25.075 67.2704C26.1357 68.6762 27.6679 68.8925 28.2572 68.8925C28.8464 68.8925 30.4964 68.7843 31.4393 67.2704L45.4643 47.4818C47.8215 44.1297 51.8286 42.1833 56.1894 42.1833C60.5501 42.1833 64.5573 44.1297 66.9145 47.4818L80.9395 67.2704C82.0002 68.6762 83.5324 68.8925 84.1217 68.8925C84.711 68.8925 86.3609 68.7843 87.3038 67.2704L101.329 47.4818C103.686 44.1297 107.693 42.1833 112.054 42.1833C116.415 42.1833 120.422 44.1297 122.779 47.4818L136.804 67.2704C137.865 68.6762 139.397 68.8925 139.986 68.8925C140.575 68.8925 142.225 68.7843 143.168 67.2704L157.193 47.4818C159.551 44.1297 163.558 42.1833 167.918 42.1833C172.279 42.1833 176.286 44.1297 178.643 47.4818L192.669 67.2704C193.729 68.6762 195.261 68.8925 195.851 68.8925C196.44 68.8925 198.09 68.7843 199.033 67.2704L213.058 47.4818C215.415 44.1297 219.422 42.1833 223.783 42.1833C228.144 42.1833 232.151 44.1297 234.508 47.4818L248.533 67.2704C249.594 68.6762 251.126 68.8925 251.715 68.8925C252.305 68.8925 253.954 68.7843 254.897 67.2704L268.922 47.4818C271.28 44.1297 275.287 42.1833 279.647 42.1833C284.008 42.1833 288.015 44.1297 290.373 47.4818L304.398 67.2704C305.458 68.6762 306.99 68.8925 307.58 68.8925C308.169 68.8925 309.819 68.7843 310.762 67.2704L331.741 37.7498C333.037 35.8033 335.866 35.3708 337.869 36.5603C339.991 37.7498 340.462 40.345 339.166 42.1833L318.187 71.704C315.948 75.0561 311.94 77.0025 307.698 77.0025Z" fill="#77E8C6"/>
</svg>

<svg width="220" height="80" fill="none" xmlns="http://www.w3.org/2000/svg"><path d="M307.695 41.102c-4.361 0-8.368-1.946-10.725-5.299l-14.025-19.788c-1.061-1.406-2.593-1.622-3.182-1.622s-2.239.108-3.182 1.622l-14.025 19.788c-2.357 3.353-6.365 5.299-10.725 5.299-4.361 0-8.368-1.946-10.725-5.299l-14.025-19.788c-1.061-1.406-2.593-1.622-3.183-1.622-.589 0-2.239.108-3.182 1.622l-14.025 19.788c-2.357 3.353-6.364 5.299-10.725 5.299s-8.368-1.946-10.725-5.299l-14.025-19.788c-1.061-1.406-2.593-1.622-3.182-1.622s-2.239.108-3.182 1.622l-14.025 19.788c-2.357 3.353-6.365 5.299-10.725 5.299-4.361 0-8.368-1.946-10.725-5.299l-14.025-19.788c-1.061-1.406-2.593-1.622-3.183-1.622-.589 0-2.239.108-3.182 1.622L94.962 35.803c-2.357 3.353-6.364 5.299-10.725 5.299-4.36 0-8.368-1.946-10.725-5.299L59.487 16.015c-1.06-1.406-2.593-1.622-3.182-1.622-.59 0-2.24.108-3.182 1.622L39.098 35.803c-2.358 3.353-6.365 5.299-10.725 5.299-4.361 0-8.368-1.946-10.725-5.299L3.623 16.015C2.562 14.609 1.03 14.393.44 14.393c-.589 0-2.239.108-3.182 1.622l-14.025 19.788c-2.357 3.353-6.364 5.299-10.725 5.299-4.36 0-8.368-1.946-10.725-5.299l-20.979-29.52c-1.296-1.947-.707-4.434 1.297-5.623 2.121-1.19 4.832-.65 6.129 1.19l20.978 29.52c1.06 1.406 2.593 1.622 3.182 1.622.59 0 2.24-.108 3.183-1.622l14.024-19.789C-8.044 8.23-4.037 6.283.324 6.283c4.36 0 8.367 1.946 10.725 5.298L25.073 31.37c1.06 1.406 2.593 1.622 3.182 1.622.59 0 2.24-.108 3.182-1.622l14.025-19.79c2.357-3.352 6.364-5.298 10.725-5.298 4.36 0 8.368 1.946 10.725 5.298l14.025 19.79c1.06 1.406 2.593 1.622 3.182 1.622.59 0 2.24-.108 3.183-1.622l14.025-19.789c2.357-3.352 6.364-5.298 10.725-5.298 4.36 0 8.367 1.946 10.725 5.298l14.025 19.789c1.06 1.406 2.592 1.622 3.182 1.622.589 0 2.239-.108 3.182-1.622l14.025-19.789c2.357-3.352 6.364-5.298 10.725-5.298s8.368 1.946 10.725 5.298l14.025 19.789c1.061 1.406 2.593 1.622 3.182 1.622.59 0 2.24-.108 3.183-1.622l14.024-19.789c2.358-3.352 6.365-5.298 10.726-5.298 4.36 0 8.367 1.946 10.725 5.298l14.025 19.789c1.06 1.406 2.593 1.622 3.182 1.622s2.239-.108 3.182-1.622l14.025-19.79c2.357-3.352 6.364-5.298 10.725-5.298s8.368 1.946 10.725 5.298l14.025 19.789c1.061 1.406 2.593 1.622 3.182 1.622.59 0 2.24-.108 3.182-1.622l21.097-29.52c1.296-1.947 4.125-2.38 6.129-1.19 2.121 1.19 2.593 3.784 1.296 5.623l-20.979 29.52c-2.357 3.353-6.364 5.299-10.607 5.299z" fill="#77E8C6"/><path d="M307.698 77.002c-4.361 0-8.368-1.946-10.725-5.298l-14.026-19.789c-1.06-1.405-2.592-1.622-3.182-1.622-.589 0-2.239.108-3.182 1.622l-14.025 19.789c-2.357 3.352-6.364 5.299-10.725 5.299s-8.368-1.947-10.725-5.299l-14.025-19.789c-1.061-1.405-2.593-1.622-3.182-1.622s-2.24.108-3.182 1.622l-14.025 19.789c-2.357 3.352-6.365 5.299-10.726 5.299-4.36 0-8.367-1.947-10.725-5.299l-14.025-19.789c-1.06-1.405-2.592-1.622-3.182-1.622-.589 0-2.239.108-3.182 1.622l-14.025 19.789c-2.357 3.352-6.364 5.299-10.725 5.299s-8.368-1.947-10.725-5.299l-14.025-19.789c-1.061-1.405-2.593-1.622-3.182-1.622-.59 0-2.239.108-3.182 1.622L94.965 71.704c-2.358 3.352-6.365 5.299-10.725 5.299-4.361 0-8.368-1.947-10.725-5.299L59.489 51.915c-1.06-1.405-2.592-1.622-3.182-1.622-.589 0-2.239.108-3.182 1.622L39.1 71.704c-2.357 3.352-6.364 5.299-10.725 5.299-4.36 0-8.368-1.947-10.725-5.299L3.625 51.915c-1.06-1.405-2.593-1.622-3.182-1.622-.59 0-2.24.108-3.182 1.622l-14.026 19.789c-2.357 3.352-6.364 5.299-10.725 5.299-4.36 0-8.367-1.947-10.725-5.299l-20.978-29.52c-1.297-1.947-.707-4.434 1.296-5.624 2.122-1.19 4.832-.649 6.129 1.19l20.978 29.52c1.061 1.406 2.593 1.623 3.183 1.623.589 0 2.239-.109 3.182-1.623L-10.4 47.482c2.357-3.352 6.364-5.299 10.725-5.299 4.36 0 8.368 1.947 10.725 5.299L25.075 67.27c1.06 1.406 2.593 1.623 3.182 1.623.59 0 2.24-.109 3.182-1.623l14.025-19.788c2.358-3.352 6.365-5.299 10.725-5.299 4.361 0 8.368 1.947 10.726 5.299L80.939 67.27c1.061 1.406 2.593 1.623 3.183 1.623.589 0 2.239-.109 3.182-1.623l14.025-19.788c2.357-3.352 6.364-5.299 10.725-5.299s8.368 1.947 10.725 5.299l14.025 19.788c1.061 1.406 2.593 1.623 3.182 1.623s2.239-.109 3.182-1.623l14.025-19.788c2.358-3.352 6.365-5.299 10.725-5.299 4.361 0 8.368 1.947 10.725 5.299l14.026 19.788c1.06 1.406 2.592 1.623 3.182 1.623.589 0 2.239-.109 3.182-1.623l14.025-19.788c2.357-3.352 6.364-5.299 10.725-5.299s8.368 1.947 10.725 5.299l14.025 19.788c1.061 1.406 2.593 1.623 3.182 1.623.59 0 2.239-.109 3.182-1.623l14.025-19.788c2.358-3.352 6.365-5.299 10.725-5.299 4.361 0 8.368 1.947 10.726 5.299l14.025 19.788c1.06 1.406 2.592 1.623 3.182 1.623.589 0 2.239-.109 3.182-1.623l20.979-29.52c1.296-1.947 4.125-2.38 6.128-1.19 2.122 1.19 2.593 3.785 1.297 5.623l-20.979 29.521c-2.239 3.352-6.247 5.299-10.489 5.299z" fill="#77E8C6"/></svg>
